icons/svgs/money-bill-solid.svg

<svg width="24" height="24" viewBox="0 0 24 24" fill="none" xmlns="http://www.w3.org/2000/svg">
<path d="M3.75 4.5H21.25C22.6172 4.5 23.75 5.63281 23.75 7V17C23.75 18.4062 22.6172 19.5 21.25 19.5H3.75C2.34375 19.5 1.25 18.4062 1.25 17V7C1.25 5.63281 2.34375 4.5 3.75 4.5ZM6.25 17C6.25 15.6328 5.11719 14.5 3.75 14.5V17H6.25ZM3.75 9.5C5.11719 9.5 6.25 8.40625 6.25 7H3.75V9.5ZM18.75 17H21.25V14.5C19.8438 14.5 18.75 15.6328 18.75 17ZM21.25 9.5V7H18.75C18.75 8.40625 19.8438 9.5 21.25 9.5ZM12.5 8.25C11.1328 8.25 9.92188 8.99219 9.21875 10.125C8.55469 11.2969 8.55469 12.7422 9.21875 13.875C9.92188 15.0469 11.1328 15.75 12.5 15.75C13.8281 15.75 15.0391 15.0469 15.7422 13.875C16.4062 12.7422 16.4062 11.2969 15.7422 10.125C15.0391 8.99219 13.8281 8.25 12.5 8.25Z" fill="black"/>
</svg>

<svg xmlns="http://www.w3.org/2000/svg" width="24" height="24" fill="currentColor" class="icon-money-bill-solid" viewBox="0 0 24 24">
  <mask id="a" width="23" height="16" x="1" y="4" maskUnits="userSpaceOnUse" style="mask-type:alpha">
    <path d="M3.75 4.5h17.5c1.367 0 2.5 1.133 2.5 2.5v10c0 1.406-1.133 2.5-2.5 2.5H3.75a2.47 2.47 0 0 1-2.5-2.5V7c0-1.367 1.094-2.5 2.5-2.5M6.25 17c0-1.367-1.133-2.5-2.5-2.5V17zm-2.5-7.5c1.367 0 2.5-1.094 2.5-2.5h-2.5zm15 7.5h2.5v-2.5a2.49 2.49 0 0 0-2.5 2.5m2.5-7.5V7h-2.5c0 1.406 1.094 2.5 2.5 2.5M12.5 8.25c-1.367 0-2.578.742-3.281 1.875-.664 1.172-.664 2.617 0 3.75.703 1.172 1.914 1.875 3.281 1.875 1.328 0 2.54-.703 3.242-1.875.664-1.133.664-2.578 0-3.75C15.04 8.992 13.828 8.25 12.5 8.25"/>
  </mask>
  <g mask="url(#a)">
    <path d="M0 0h24v24H0z"/>
  </g>
</svg>
